images/icons/source/retry.svg

<svg width="48" height="48" viewBox="0 0 48 48" version="1.1" xmlns="http://www.w3.org/2000/svg" xmlns:xlink="http://www.w3.org/1999/xlink" xmlns:figma="http://www.figma.com/figma/ns">
<title>retry</title>
<desc>Created using Figma</desc>
<g id="Canvas" transform="translate(321 -35)" figma:type="canvas">
<mask id="mask0_alpha" mask-type="alpha">
<path d="M -321 35L -273 35L -273 83L -321 83L -321 35Z" fill="#FFFFFF"/>
</mask>
<g id="retry" style="mix-blend-mode:normal;" mask="url(#mask0_alpha)" figma:type="frame">
<g id="Vector" style="mix-blend-mode:normal;" figma:type="vector">
<use xlink:href="#path0_fill" transform="translate(-321 38)" fill="#3BB75E" style="mix-blend-mode:normal;"/>
</g>
</g>
</g>
<defs>
<path id="path0_fill" d="M 8.59529 20.6701L 5.14086 24.1699C 4.92485 24.3885 4.65552 24.4979 4.43952 24.4979C 4.22351 24.4979 3.89924 24.3885 3.73764 24.1699L 0.283203 20.6701C -0.094401 20.2877 -0.094401 19.6311 0.283203 19.1938C 0.661341 18.8109 1.30935 18.8109 1.74082 19.1938L 3.41444 20.8888C 3.41444 9.3505 12.6983 1.38348e-07 24.0872 1.38348e-07C 24.6275 1.38348e-07 25.1128 0.436805 25.1128 1.03894C 25.1128 1.14828 25.1128 1.25761 25.0584 1.31255C 24.9507 1.74935 24.5731 2.07789 24.0872 2.07789C 13.8316 2.07789 5.46566 10.5537 5.46566 20.9437L 7.19261 19.1938C 7.57022 18.8109 8.21822 18.8109 8.65023 19.1938C 9.0273 19.6317 9.0273 20.2877 8.59529 20.6701ZM 27.9192 2.51523C 27.9726 2.51523 28.0808 2.51523 28.1352 2.51523C 28.6206 2.51523 29.0526 2.18776 29.107 1.69549C 29.2153 1.14828 28.8904 0.601606 28.2974 0.492272C 27.7576 0.382937 27.2174 0.710941 27.1102 1.31255C 27.0008 1.85922 27.3256 2.40643 27.9192 2.51523ZM 34.9364 5.63259C 35.098 5.74246 35.314 5.85126 35.5295 5.85126C 35.8537 5.85126 36.178 5.68699 36.3396 5.41393C 36.6639 4.92112 36.5556 4.32005 36.1236 3.99151C 35.6377 3.66351 35.0436 3.77284 34.7204 4.21071C 34.3433 4.70299 34.451 5.30406 34.9364 5.63259ZM 38.5524 8.58516C 38.8218 8.58516 39.0378 8.47583 39.2538 8.31209C 39.6863 7.92915 39.6863 7.27261 39.3076 6.83527C 38.93 6.39794 38.2826 6.39794 37.8505 6.78034C 37.4185 7.16381 37.4185 7.81982 37.7972 8.25716C 38.0132 8.47636 38.2831 8.58516 38.5524 8.58516ZM 41.737 14.9287C 41.8991 15.366 42.2773 15.6396 42.7082 15.6396C 42.8159 15.6396 42.9242 15.6396 43.0319 15.5847C 43.5722 15.4204 43.8421 14.8188 43.6805 14.2722C 43.5189 13.7255 42.9242 13.4519 42.385 13.6161C 41.8453 13.8354 41.5221 14.437 41.737 14.9287ZM 6.54407 27.5059C 6.3286 26.9592 5.7878 26.6856 5.24912 26.9043C 4.70885 27.123 4.43951 27.6702 4.65552 28.2168C 4.81712 28.6542 5.19526 28.8729 5.62673 28.8729C 5.73446 28.8729 5.84326 28.8729 6.00433 28.8185C 6.49074 28.5992 6.76007 27.9982 6.54407 27.5059ZM 40.9818 11.9217C 41.1429 11.9217 41.3589 11.8668 41.5221 11.7575C 42.0074 11.4839 42.169 10.8279 41.8997 10.3356C 41.6298 9.84331 40.9818 9.67957 40.4959 9.95318C 40.0106 10.2268 39.849 10.8828 40.1183 11.3751C 40.2794 11.7025 40.6575 11.9217 40.9818 11.9217ZM 31.5891 3.71844C 31.6974 3.77337 31.859 3.82778 32.0212 3.82778C 32.3993 3.82778 32.7774 3.60911 32.939 3.22617C 33.155 2.67896 32.939 2.07789 32.3993 1.85922C 31.859 1.64055 31.2654 1.85922 31.0499 2.40643C 30.8345 2.84376 31.0505 3.50031 31.5891 3.71844ZM 17.0157 38.4426C 16.4764 38.2239 15.8823 38.4975 15.6663 38.9892C 15.4508 39.5364 15.7207 40.1375 16.206 40.3562C 16.3143 40.4111 16.477 40.4111 16.5847 40.4111C 16.9623 40.4111 17.3943 40.1924 17.5021 39.7551C 17.7719 39.2628 17.5559 38.6612 17.0157 38.4426ZM 20.74 39.5364C 20.2013 39.4266 19.6605 39.8095 19.5527 40.3562C 19.4445 40.9028 19.8221 41.4501 20.3624 41.5594C 20.4162 41.5594 20.4706 41.5594 20.524 41.5594C 21.0098 41.5594 21.4418 41.2314 21.5496 40.6847C 21.6589 40.1924 21.2797 39.6458 20.74 39.5364ZM 9.1889 34.0676C 8.75796 34.45 8.75796 35.1065 9.13503 35.5439C 9.35104 35.7625 9.62144 35.8724 9.89131 35.8724C 10.1606 35.8724 10.3766 35.7631 10.5926 35.5993C 11.0247 35.2164 11.0247 34.5598 10.5926 34.1225C 10.2689 33.6852 9.62144 33.6302 9.1889 34.0676ZM 6.86834 30.6771C 6.38247 31.0057 6.22033 31.6067 6.54407 32.0985C 6.76007 32.4276 7.08434 32.5908 7.40808 32.5908C 7.56968 32.5908 7.78622 32.5358 7.94835 32.427C 8.43369 32.098 8.54196 31.4969 8.27209 31.0046C 7.94782 30.5134 7.35368 30.3491 6.86834 30.6771ZM 13.6156 36.5833C 13.1303 36.2548 12.5356 36.3647 12.2119 36.8564C 11.8881 37.3487 11.9959 37.9498 12.4817 38.2778C 12.6433 38.3876 12.8588 38.442 13.0753 38.442C 13.3996 38.442 13.7233 38.2778 13.9394 38.0042C 14.2087 37.5673 14.0471 36.9113 13.6156 36.5833ZM 47.7291 21.3272L 44.2741 17.8269C 43.897 17.4445 43.249 17.4445 42.8165 17.8269L 39.3631 21.3272C 38.985 21.7096 38.985 22.3656 39.3631 22.8034C 39.5791 23.0221 39.8484 23.132 40.0644 23.132C 40.2799 23.132 40.6042 23.0221 40.7658 22.8034L 42.4933 21.0536C 42.4933 31.443 34.1273 39.9188 23.8712 39.9188C 23.3309 39.9188 22.845 40.3562 22.845 40.9583C 22.845 41.5594 23.2771 41.9973 23.8712 41.9973C 35.2601 41.9973 44.544 32.6462 44.544 21.108L 46.2176 22.8034C 46.4336 23.0221 46.7034 23.132 46.9194 23.132C 47.1354 23.132 47.4592 23.0221 47.6208 22.8034C 48.1067 22.3656 48.1067 21.709 47.7291 21.3272Z"/>
</defs>
</svg>

<svg width="48" height="48" viewBox="0 0 48 48" xmlns="http://www.w3.org/2000/svg" xmlns:xlink="http://www.w3.org/1999/xlink" xmlns:figma="http://www.figma.com/figma/ns">
    <title>
        retry
    </title>
    <desc>
        Created using Figma
    </desc>
    <g transform="translate(321 -35)" figma:type="canvas">
        <mask id="a">
            <path d="M-321 35h48v48h-48V35z" fill="#FFF"/>
        </mask>
        <g style="mix-blend-mode:normal" mask="url(#a)" figma:type="frame">
            <use xlink:href="#b" transform="translate(-321 38)" fill="#3BB75E" style="mix-blend-mode:normal" figma:type="vector"/>
        </g>
    </g>
    <defs>
        <path id="b" d="M8.595 20.67l-3.454 3.5c-.216.218-.485.328-.701.328-.216 0-.54-.11-.702-.328l-3.455-3.5c-.377-.382-.377-1.039 0-1.476.378-.383 1.026-.383 1.458 0l1.673 1.695C3.414 9.35 12.698 0 24.087 0c.54 0 1.026.437 1.026 1.039 0 .11 0 .219-.055.274a.991.991 0 0 1-.97.765c-10.256 0-18.622 8.476-18.622 18.866l1.727-1.75c.377-.383 1.025-.383 1.457 0 .377.438.377 1.094-.055 1.476zM27.92 2.515h.216c.486 0 .918-.327.972-.82.108-.547-.217-1.093-.81-1.203a.99.99 0 0 0-1.187.82c-.11.547.216 1.094.81 1.203zm7.017 3.118c.162.11.378.218.593.218.325 0 .649-.164.81-.437.325-.493.217-1.094-.215-1.422-.486-.328-1.08-.22-1.404.219-.377.492-.269 1.093.216 1.422zm3.616 2.952c.27 0 .486-.11.702-.273.432-.383.432-1.04.054-1.477-.378-.437-1.025-.437-1.458-.055-.431.384-.431 1.04-.053 1.477.216.22.486.328.755.328zm3.185 6.344c.162.437.54.71.971.71.108 0 .216 0 .324-.054.54-.165.81-.766.649-1.313-.162-.546-.757-.82-1.296-.656-.54.22-.863.821-.648 1.313zM6.544 27.506c-.215-.547-.756-.82-1.295-.602-.54.219-.81.766-.593 1.313.161.437.54.656.97.656.108 0 .217 0 .378-.055.487-.219.756-.82.54-1.312zm34.438-15.584c.16 0 .377-.055.54-.165.485-.273.647-.93.378-1.421-.27-.493-.918-.656-1.404-.383-.485.274-.647.93-.378 1.422.161.328.54.547.864.547zm-9.393-8.204c.108.055.27.11.432.11a.997.997 0 0 0 .918-.602c.216-.547 0-1.148-.54-1.367-.54-.218-1.134 0-1.35.547-.215.438.002 1.094.54 1.312zM17.016 38.443a1.052 1.052 0 0 0-1.35.546 1.076 1.076 0 0 0 .54 1.367c.108.055.271.055.379.055.377 0 .81-.219.917-.656.27-.492.054-1.094-.486-1.312zm3.724 1.093c-.539-.11-1.08.273-1.187.82-.108.547.27 1.094.81 1.203h.161c.486 0 .918-.328 1.026-.874.109-.493-.27-1.04-.81-1.149zM9.189 34.068c-.431.382-.431 1.038-.054 1.476.216.219.486.328.756.328s.486-.109.702-.273c.432-.383.432-1.04 0-1.476-.324-.438-.972-.493-1.404-.055zm-2.32-3.39c-.487.328-.649.929-.325 1.42.216.33.54.493.864.493.162 0 .378-.055.54-.164.486-.329.594-.93.324-1.422-.324-.492-.918-.656-1.404-.328zm6.747 5.905c-.486-.328-1.08-.218-1.404.273-.324.493-.216 1.094.27 1.422.161.11.377.164.593.164.325 0 .648-.164.864-.438.27-.437.108-1.093-.323-1.42zm34.113-15.256l-3.455-3.5c-.377-.383-1.025-.383-1.458 0l-3.453 3.5c-.378.383-.378 1.039 0 1.476.216.22.485.329.701.329.216 0 .54-.11.702-.329l1.727-1.75c0 10.39-8.366 18.866-18.622 18.866-.54 0-1.026.437-1.026 1.04 0 .6.432 1.038 1.026 1.038 11.39 0 20.673-9.35 20.673-20.889l1.674 1.695c.216.22.485.329.701.329.216 0 .54-.11.702-.329.486-.437.486-1.094.108-1.476z"/>
    </defs>
</svg>
